Numix/24x24/status/dropboxstatus-busy.svg

<?xml version="1.0" encoding="UTF-8" standalone="no"?>
<svg
   xmlns:dc="http://purl.org/dc/elements/1.1/"
   xmlns:cc="http://creativecommons.org/ns#"
   xmlns:rdf="http://www.w3.org/1999/02/22-rdf-syntax-ns#"
   xmlns:svg="http://www.w3.org/2000/svg"
   xmlns="http://www.w3.org/2000/svg"
   xmlns:sodipodi="http://sodipodi.sourceforge.net/DTD/sodipodi-0.dtd"
   xmlns:inkscape="http://www.inkscape.org/namespaces/inkscape"
   width="24"
   height="24"
   viewBox="0 0 24 24"
   id="svg2991"
   version="1.1"
   inkscape:version="0.48.5 r10040"
   sodipodi:docname="dropboxstatus-busy.svg">
  <metadata
     id="metadata3003">
    <rdf:RDF>
      <cc:Work
         rdf:about="">
        <dc:format>image/svg+xml</dc:format>
        <dc:type
           rdf:resource="http://purl.org/dc/dcmitype/StillImage" />
      </cc:Work>
    </rdf:RDF>
  </metadata>
  <defs
     id="defs3001" />
  <sodipodi:namedview
     pagecolor="#ffffff"
     bordercolor="#666666"
     borderopacity="1"
     objecttolerance="10"
     gridtolerance="10"
     guidetolerance="10"
     inkscape:pageopacity="0"
     inkscape:pageshadow="2"
     inkscape:window-width="1280"
     inkscape:window-height="998"
     id="namedview2999"
     showgrid="false"
     inkscape:zoom="13.906433"
     inkscape:cx="0.91373918"
     inkscape:cy="6.6090359"
     inkscape:window-x="0"
     inkscape:window-y="0"
     inkscape:window-maximized="1"
     inkscape:current-layer="svg2991" />
  <path
     style="fill:#ececec;fill-opacity:1"
     inkscape:connector-curvature="0"
     id="path2997"
     d="m 7.089844,3.816406 -4.90625,3.820313 4.90625,3.273437 -4.90625,4.363282 L 12,21.816406 21.816406,15.273438 16.910156,10.910156 21.816406,7.636719 16.910156,3.816406 12,7.636719 z M 9.613281,8.726562 12.75,9.546875 11.078125,12.339844 10.636719,11.25 c -1.171875,0.523438 -1.910157,1.660156 -1.910157,2.933594 0,1.316406 0.828126,2.523437 2.082032,3 l -0.582032,1.5 c -1.878906,-0.714844 -3.136718,-2.523438 -3.136718,-4.5 0,-1.9375 1.171875,-3.664063 2.96875,-4.433594 z m 4.195313,0.957032 c 1.875,0.734375 3.101562,2.511718 3.101562,4.5 0,1.917968 -1.175781,3.675781 -2.96875,4.429687 l 0.375,1.023438 -3,-0.851563 1.605469,-2.761718 0.40625,1.089843 c 1.164063,-0.515625 1.945313,-1.667969 1.945313,-2.929687 0,-1.328125 -0.792969,-2.511719 -2.046876,-3 z" />
</svg>

<svg xmlns="http://www.w3.org/2000/svg" width="24" height="24" viewBox="0 0 24 24">
 <g>
  <path d="M 7.089844 4.910156 L 2.183594 8.726562 L 7.089844 12 L 2.183594 16.363281 L 12 22.910156 L 21.816406 16.363281 L 16.910156 12 L 21.816406 8.726562 L 16.910156 4.910156 L 12 8.726562 Z M 9.613281 9.816406 L 12.75 10.636719 L 11.078125 13.433594 L 10.636719 12.339844 C 9.464844 12.863281 8.726562 14 8.726562 15.273438 C 8.726562 16.59375 9.554688 17.796875 10.808594 18.273438 L 10.226562 19.773438 C 8.347656 19.058594 7.089844 17.25 7.089844 15.273438 C 7.089844 13.335938 8.261719 11.609375 10.058594 10.839844 Z M 13.808594 10.773438 C 15.683594 11.507812 16.910156 13.285156 16.910156 15.273438 C 16.910156 17.195312 15.734375 18.953125 13.941406 19.703125 L 14.316406 20.726562 L 11.316406 19.875 L 12.921875 17.113281 L 13.328125 18.203125 C 14.492188 17.691406 15.273438 16.535156 15.273438 15.273438 C 15.273438 13.949219 14.480469 12.761719 13.226562 12.273438 Z " fill-opacity="0.302"/>
  <path d="M 7.089844 3.816406 L 2.183594 7.636719 L 7.089844 10.910156 L 2.183594 15.273438 L 12 21.816406 L 21.816406 15.273438 L 16.910156 10.910156 L 21.816406 7.636719 L 16.910156 3.816406 L 12 7.636719 Z M 9.613281 8.726562 L 12.75 9.546875 L 11.078125 12.339844 L 10.636719 11.25 C 9.464844 11.773438 8.726562 12.910156 8.726562 14.183594 C 8.726562 15.5 9.554688 16.707031 10.808594 17.183594 L 10.226562 18.683594 C 8.347656 17.96875 7.089844 16.160156 7.089844 14.183594 C 7.089844 12.246094 8.261719 10.519531 10.058594 9.75 Z M 13.808594 9.683594 C 15.683594 10.417969 16.910156 12.195312 16.910156 14.183594 C 16.910156 16.101562 15.734375 17.859375 13.941406 18.613281 L 14.316406 19.636719 L 11.316406 18.785156 L 12.921875 16.023438 L 13.328125 17.113281 C 14.492188 16.597656 15.273438 15.445312 15.273438 14.183594 C 15.273438 12.855469 14.480469 11.671875 13.226562 11.183594 Z " fill="#dcdcdc"/>
 </g>
</svg>
